X: 27492
T: Molly St George
R: waltz
M: 3/4
K: Dmajor
[M:4/4]ABc2|d4 d2c2 B2A2|A4 B2A2 G2F2|G4 F4 E3D|B,8 EFA2|
B4 {cd}c4 cBAF|E4 F4 A2A,2|A,B,D2 TE6D2|D8:|
A,B,C2|D4 D2E2 F2E2|F4 F4 DEF2|G3F G2A2 B2c2|d4 D4 ABd2|
e4 f4 fedB|A4 {Bcd}B4 BAF2|E4 E2F2 A3F|E8 E2F2|
G3F G2A2 B2c2|d3B e3d c2{Bd}B2|A2B2 d2F2 E2D2|HB,8 B2c2|
d2dc B2A2 G2F2|G3F E2D2 B,2B,A,|B,2D2 TE6 D2|D8||

